X:1
T:Martin Wynne's #4
C:Martin Wynne
D:Brian Conway, First Through the Gate
Z:http://www.cranfordpub.com/tunes/abcs/conway.abc
R:reel
M:4/4
L:1/8
K:G
A|BGAG EDB,C|DGBA GBAG|EB, ~B,2 G,A,B,C|(3(EFG) AB cedc|
BGAG EDB,C|DGBA GBAG|EB, ~B,2 G,A,B,C|(3(EFG) Ac BGG|]
A|B2 (3(dcB) cedc|BGDB EAAc|Bc{e}dB dega|bg ~g2ea{b}ag|
bg ~g2 aegf|eBdB GA (3(Bcd)|eBdB cBAG|(3(EFG) Ac BGG|]
</abc>
